!! 00000] TT[WS
!!!OTL: Nao wugeng
!!!ARE: Asia, China, Shanxi Lingxian
!! Ethnic Group: Han
!! WII, 123 (2)
!!!SCT: J0589
!!!YEM: Copyright 1995, estate of Helmut Schaffrath.
**kern
*ICvox
*Ivox
*M2/4
*k[f#c#g#]
*A:
{8a
8b
8ee
8cc#
=1
4b
4b
=2
8cc#
8b
8a
8f#
=3
8cc#
8b
8a
8f#
=4
8a
8b
8a
8f#
=5
2e}
=6
{8a
4a
8b
=7
8cc#
8ee
8cc#
8b
=8
8a
8b
8a
8f#
=9
2e}
=10
{8e
8f#
8e
8f#
=11
8a
8b
8cc#
8b
=12
4a
8f#
8e
=13
8d
8f#
8e
8A
=14
2B}
==
!!!AGN: Xiaodiao. Qingge, Aisu
!!!ONB: ESAC (Essen Associative Code) Database: CHINA
!!!AMT: simple duple
!!!AIN: vox
!!!EED: Helmut Schaffrath
!!!EEV: 1.0
*-
